X:1
T:The Great Physician
T:John Hart Stockton, 1869
T:The Great Physician
T:Public Domain
T:Public Domain
C:John Hart Stockton, 1869
Z:Public Domain
%%score ( 1 2 ) ( 3 4 )
L:1/8
M:6/8
K:Eb
V:1 treble 
V:2 treble 
V:3 bass 
V:4 bass 
V:1
 [GB] | [GB]2 [EG] E2 [DF] | [EG]2 [FA] [GB]2 [GB] | [GB]2 [B,E] [EG]2 [B,E] | [DF]3 E2 [GB] | %5
w: 1.~The|great Phy- si- cian|now is near, The|sym- pa- thiz- ing|Je- sus; He|
w: 2.~Your|ma- ny sins are|all for- giv’n, Oh!|hear the voice of|Je- sus; Go|
w: 3.~All|glo- ry to the|dy- ing Lamb! I|now be- lieve in|Je- sus; I|
w: 4.~The|child- ren, too, both|great and small, Who|love the name of|Je- sus, May|
w: 5.~Come,|breth- ren, help me|sing His praise, Oh,|praise the name of|Je- sus; Oh,|
w: 6.~His|name dis- pels my|guilt and fear, No|o- ther name but|Je- sus; Oh!|
w: 7.~And|when to that bright|world a- bove, We|rise to see our|Je- sus, We’ll|
 [GB]2 [EG] E2 [DF] | [EG]2 [FA] [GB]2 [GB] | [GB]2 [B,E] [EG]2 [B,E] | [DF]3 [B,E]3 || %9
w: the droop- ing heart|cheer, Oh! hear the|voice of Je- sus.||
w: your way in peace|Heav’n, And wear a|crown with Je- sus.||
w: the bless- èd Sav-|name, I love the|name of Je- sus.||
w: ac- cept the gra-|call To work and|live for Je- sus.||
w: ters, all your voic-|raise, Oh, bless the|name of Je- sus.||
w: my soul de- lights|hear The charm- ing|name of Je- sus.||
w: a- round the throne|love His name, the|name of Je- sus.||
"^Refrain" (Bc)[Ad] [Ge]2 [GB] | [Ad]2 [Ac] [GB]3 | (Bc)[Ad] [Ge]2 [GB] | [Ad]2 [Ac] [GB]3 | %13
w: ||||
w: ||||
w: ||||
w: ||||
w: ||||
w: ||||
w: ||||
 [GB]2 [EG] [B,E]2 [DF] | [EG]2 [FA] [GB]3 | [GB]2 E [EG]2 [B,E] | [DF]3 E2 |] %17
w: ||||
w: ||||
w: ||||
w: ||||
w: ||||
w: ||||
w: ||||
V:2
 x | x6 | x6 | x6 | x3 E2 x | x3 E2 x | x6 | x6 | x6 || A2 x4 | x6 | A2 x4 | x6 | x6 | x6 | x6 | %16
w: ||||speaks|to|||||||||||
w: ||||on|to|||||||||||
w: ||||love|ior’s|||||||||||
w: ||||now|cious|||||||||||
w: ||||sis-|es|||||||||||
w: ||||how|to|||||||||||
w: ||||sing|of|||||||||||
 x3 E2 |] %17
w: |
w: |
w: |
w: |
w: |
w: |
w: |
V:3
 [E,B,] | [E,E]2 [E,B,] [E,G,]2 [B,,B,] | [E,B,]2 [E,B,] [E,B,]2 [E,B,] | %3
w: ~|~ ~ ~ ~|~ ~ ~ ~|
 [E,E]2 [E,G,] [E,B,]2 [E,G,] | [B,,A,]3 [E,G,]2 [E,B,] | [E,E]2 [E,B,] [E,G,]2 [B,,B,] | %6
w: ~ ~ ~ ~|~ ~ ~|~ ~ ~ ~|
 [E,B,]2 [E,B,] [E,B,]2 [E,B,] | [E,E]2 [E,G,] [E,B,]2 [E,G,] | [B,,A,]3 [E,G,]3 || %9
w: ~ ~ ~ ~|~ ~ ~ ~|~ ~|
 B,2 B, [E,B,]2 [E,E] | [A,E]2 [A,E] [E,E]3 | B,2 B, [E,B,]2 [E,E] | [A,E]2 [A,E] [E,E]3 | %13
w: Sweet- est note in|song, Sweet- est|name on mor- tal|est car- ol|
 [E,E]2 [E,B,] [E,G,]2 [B,,B,] | [E,B,]2 [E,B,] [E,E]3 | [E,E]2 [E,G,] [E,B,]2 [E,G,] | %16
w: ev- er sung, Je-|sus, bless- èd|Je- sus. * *|
 [B,,A,]3 [E,G,]2 |] %17
w: |
V:4
 x | x6 | x6 | x6 | x6 | x6 | x6 | x6 | x6 || B,2 B, x3 | x6 | B,2 B, x3 | x6 | x6 | x6 | x6 | %16
w: |||||||||ser- aph||tongue; Sweet-|||||
 x5 |] %17
w: |

